X: 124
T: Dirlenton Green
T: Longways for as many.
%R: reel
B: Daniel Wright "Wright's Compleat Collection of Celebrated Country Dances" 1740 p.62
S: http://library.efdss.org/cgi-bin/dancebooks.cgi
Z: 2014 John Chambers <jc:trillian.mit.edu>
N: The 2nd strain has initial repeat but no final repeat; fixed to fit the dance.
M: C
L: 1/8
K: D
% - - - - - - - - - - - - - - - - - - - - - - - - -
e |\
fd dA F>G AB | =c/c/c cG EG eg |\
fd dA EG Bg | fa ef d/d/d d :|
|: e |\
defg abaf | ge=cg ecge |\
defg abaf | ge=ce d/d/d d :|
% - - - - - - - - - - - - - - - - - - - - - - - - -
%%begintext align
%% Cross over behind the 2d Cu. then the 1st Man
%% and 2d Wo. lead thro' the 2d Cu. and cast of
%% into their Places .| Then the 2d Man and 2d
%% Wo. do the same :| the 1st Man ?and 1st Wo.
%% take both hands, and slide down the Middle
%% and foot it, then slide up the Middle and foot
%% it, then cast off, and go the whole Figure
%% with the 2d Cu. :|
%%endtext
% - - - - - - - - - - - - - - - - - - - - - - - - -
%%sep 2 4 300
